X: 42360
T: Welcome To Cork
R: jig
M: 6/8
K: Gmajor
|:dBG gdB|efg dBG|cec BdB|cAG FED|
dBG ece|gba gdB|fed cAF|1 AGF G2 B:|2 AGF G2 D||
|:Ggf gag|=fde fgf|=FfF fef|fdc AFD|
Ggf gag|=fde fgf|cBc a=fc|1 AGF G2 D:|2 AGF G2 B||

